T: Arra Mountains
M: 9/8
L: 1/8
K: Gmaj
EAA EAB c3|EAA AGF GED|EAA EAB c2d|e2e ege dBG:||!.Aza gef ~g3|~a3 ged Bcd|eAA gef ~g2e|d^cd efe dBG|!.Aza gef ~g3|aba ged Bcd|e/f/ge f/g/af g2e|d^cd efe dBG||
